icons/clockwise-2-line.svg

<svg xmlns="http://www.w3.org/2000/svg" width="24" height="24" fill="none"><g clip-path="url(#a)"><g><path fill="#121212" d="M10.586 3.99996L8.757 2.17196L10.172 0.756958L14.414 4.99996L10.172 9.24296L8.757 7.82796L10.586 5.99996H8C7.20435 5.99996 6.44129 6.31603 5.87868 6.87864C5.31607 7.44125 5 8.20431 5 8.99996V13H3V8.99996C3 7.67388 3.52678 6.40211 4.46447 5.46442C5.40215 4.52674 6.67392 3.99996 8 3.99996H10.586ZM9 11C9 10.7347 9.10536 10.4804 9.29289 10.2929C9.48043 10.1053 9.73478 9.99996 10 9.99996H20C20.2652 9.99996 20.5196 10.1053 20.7071 10.2929C20.8946 10.4804 21 10.7347 21 11V21C21 21.2652 20.8946 21.5195 20.7071 21.7071C20.5196 21.8946 20.2652 22 20 22H10C9.73478 22 9.48043 21.8946 9.29289 21.7071C9.10536 21.5195 9 21.2652 9 21V11ZM11 12V20H19V12H11Z"/></g></g><defs><clipPath id="a"><rect width="24" height="24" fill="white"/></clipPath></defs></svg>

<svg width="24" height="24" fill="none" xmlns="http://www.w3.org/2000/svg"><g clip-path="url(#a)"><path d="M10.586 4 8.757 2.172 10.172.757 14.414 5l-4.242 4.243-1.415-1.415L10.586 6H8a3 3 0 0 0-3 3v4H3V9a5 5 0 0 1 5-5h2.586ZM9 11a1 1 0 0 1 1-1h10a1 1 0 0 1 1 1v10a1 1 0 0 1-1 1H10a1 1 0 0 1-1-1V11Zm2 1v8h8v-8h-8Z" /></g><defs><clipPath id="a"><path fill="#fff" d="M0 0h24v24H0z"/></clipPath></defs></svg>
